logo/dark.svg

<svg width="204" height="37" viewBox="0 0 204 37" fill="none" xmlns="http://www.w3.org/2000/svg">
<g clip-path="url(#clip0_27_26)">
<path d="M30.343 9.99C31.7318 11.3591 32.8354 12.9899 33.59 14.7881C34.3447 16.5863 34.7355 18.5163 34.7397 20.4664C34.744 22.4165 34.3617 24.3482 33.6149 26.1497C32.8682 27.9512 31.7717 29.5868 30.389 30.962C28.678 32.668 26.6475 34.0199 24.4136 34.9405C22.1796 35.861 19.7862 36.3322 17.37 36.327C14.6853 36.333 12.0319 35.7509 9.59627 34.6215C7.16065 33.4922 5.00198 31.843 3.27201 29.79C10.481 35.745 21.217 35.371 27.985 28.672C29.0679 27.6042 29.9279 26.3319 30.5148 24.9289C31.1017 23.5259 31.404 22.0203 31.404 20.4995C31.404 18.9787 31.1017 17.4731 30.5148 16.0701C29.9279 14.6671 29.0679 13.3948 27.985 12.327C23.425 7.813 16.032 7.813 11.472 12.327C11.0077 12.7846 10.6389 13.3299 10.3872 13.9313C10.1355 14.5327 10.0059 15.1781 10.0059 15.83C10.0059 16.4819 10.1355 17.1273 10.3872 17.7287C10.6389 18.3301 11.0077 18.8754 11.472 19.333C12.4151 20.2628 13.6862 20.784 15.0105 20.784C16.3348 20.784 17.606 20.2628 18.549 19.333C18.8634 19.0231 19.2871 18.8493 19.7285 18.8493C20.17 18.8493 20.5937 19.0231 20.908 19.333C21.0625 19.4855 21.1851 19.6671 21.2688 19.8673C21.3526 20.0676 21.3957 20.2825 21.3957 20.4995C21.3957 20.7165 21.3526 20.9314 21.2688 21.1317C21.1851 21.3319 21.0625 21.5135 20.908 21.666C19.3363 23.2153 17.218 24.0839 15.011 24.0839C12.804 24.0839 10.6857 23.2153 9.11401 21.666C8.34066 20.9033 7.72658 19.9946 7.30744 18.9925C6.88829 17.9905 6.67245 16.9152 6.67245 15.829C6.67245 14.7428 6.88829 13.6675 7.30744 12.6655C7.72658 11.6634 8.34066 10.7547 9.11401 9.992C14.975 4.187 24.48 4.187 30.343 9.992V9.99ZM17.37 -1.71911e-06C20.0546 -0.00587941 22.708 0.57642 25.1434 1.70595C27.5789 2.83548 29.7373 4.48482 31.467 6.538C24.257 0.582998 13.52 0.957998 6.75601 7.653V7.655C5.67293 8.72278 4.81288 9.99518 4.22586 11.3982C3.63883 12.8013 3.33653 14.3071 3.33653 15.828C3.33653 17.3489 3.63883 18.8547 4.22586 20.2577C4.81288 21.6608 5.67293 22.9332 6.75601 24.001C11.314 28.516 18.706 28.516 23.266 24.001C23.7302 23.5434 24.0988 22.9982 24.3504 22.3969C24.602 21.7956 24.7316 21.1503 24.7316 20.4985C24.7316 19.8467 24.602 19.2014 24.3504 18.6001C24.0988 17.9988 23.7302 17.4536 23.266 16.996C22.323 16.0662 21.0518 15.545 19.7275 15.545C18.4032 15.545 17.1321 16.0662 16.189 16.996C15.8747 17.3056 15.4512 17.4792 15.01 17.4792C14.5688 17.4792 14.1453 17.3056 13.831 16.996C13.6764 16.8435 13.5536 16.6618 13.4698 16.4615C13.386 16.2612 13.3429 16.0462 13.3429 15.829C13.3429 15.6118 13.386 15.3968 13.4698 15.1965C13.5536 14.9962 13.6764 14.8145 13.831 14.662C15.4027 13.1126 17.521 12.2441 19.728 12.2441C21.935 12.2441 24.0533 13.1126 25.625 14.662C26.3984 15.4247 27.0124 16.3334 27.4316 17.3355C27.8507 18.3375 28.0666 19.4128 28.0666 20.499C28.0666 21.5852 27.8507 22.6605 27.4316 23.6625C27.0124 24.6646 26.3984 25.5733 25.625 26.336C19.763 32.141 10.258 32.141 4.39501 26.336C3.00453 24.9649 1.90004 23.3314 1.14556 21.5302C0.39108 19.729 0.00162291 17.796 -0.000237444 15.8432C-0.00209779 13.8904 0.383676 11.9566 1.13472 10.154C1.88577 8.35139 2.98715 6.71579 4.37501 5.342C7.82848 1.91092 12.5019 -0.0102261 17.37 -1.71911e-06Z" fill="url(#paint0_radial_27_26)"/>
<path d="M59.211 27.49C59.4333 27.4913 59.6537 27.4485 59.8593 27.3641C60.065 27.2796 60.2518 27.1552 60.409 26.998C60.5662 26.8408 60.6906 26.6539 60.7751 26.4483C60.8596 26.2427 60.9024 26.0223 60.901 25.8C60.9024 25.5777 60.8596 25.3573 60.7751 25.1517C60.6906 24.9461 60.5662 24.7592 60.409 24.602C60.2518 24.4448 60.065 24.3204 59.8593 24.2359C59.6537 24.1515 59.4333 24.1087 59.211 24.11H52.331V12.306C52.331 11.267 51.511 10.446 50.471 10.446C49.434 10.446 48.613 11.267 48.613 12.306V25.631C48.613 26.67 49.433 27.489 50.472 27.489H59.212L59.211 27.49ZM68.529 14.406C70.533 14.406 71.982 14.937 72.899 15.854C73.864 16.821 74.299 18.244 74.299 19.984V25.872C74.299 26.862 73.501 27.635 72.512 27.635C71.45 27.635 70.749 26.886 70.749 26.115V26.089C69.856 27.079 68.626 27.731 66.839 27.731C64.401 27.731 62.398 26.331 62.398 23.772V23.724C62.398 20.9 64.546 19.596 67.612 19.596C68.6894 19.5867 69.76 19.7667 70.775 20.128V19.91C70.775 18.389 69.831 17.544 67.998 17.544C67.1396 17.5343 66.2847 17.6561 65.463 17.905C65.2936 17.9689 65.1141 18.0021 64.933 18.003C64.087 18.003 63.412 17.351 63.412 16.507C63.412 15.872 63.806 15.304 64.401 15.082C65.561 14.647 66.815 14.406 68.529 14.406ZM68.479 21.793C66.912 21.793 65.946 22.421 65.946 23.579V23.626C65.946 24.616 66.767 25.196 67.951 25.196L68.145 25.192C69.686 25.126 70.735 24.277 70.817 23.079L70.822 22.928V22.275C70.194 21.986 69.374 21.793 68.48 21.793H68.479ZM79.296 27.635C80.31 27.635 81.129 26.815 81.129 25.8V22.372C81.129 19.765 82.169 18.342 84.027 17.907C84.775 17.737 85.402 17.157 85.402 16.193C85.402 15.153 84.75 14.406 83.617 14.406C82.529 14.406 81.661 15.565 81.131 16.821V16.241C81.131 15.7543 80.9377 15.2876 80.5936 14.9435C80.2495 14.5993 79.7827 14.406 79.296 14.406C78.8094 14.406 78.3426 14.5993 77.9985 14.9435C77.6544 15.2876 77.461 15.7543 77.461 16.241V25.801C77.461 26.814 78.281 27.634 79.294 27.634L79.296 27.635ZM92.306 14.406C94.311 14.406 95.759 14.937 96.676 15.854C97.641 16.821 98.076 18.244 98.076 19.984V25.872C98.076 26.862 97.279 27.635 96.29 27.635C95.227 27.635 94.527 26.886 94.527 26.115V26.089C93.634 27.079 92.404 27.732 90.616 27.732C88.178 27.731 86.176 26.331 86.176 23.772V23.724C86.176 20.9 88.324 19.596 91.39 19.596C92.4671 19.5868 93.5373 19.7668 94.552 20.128V19.91C94.552 18.389 93.609 17.544 91.776 17.544C90.9176 17.5343 90.0627 17.6561 89.241 17.905C89.0716 17.9689 88.8921 18.0021 88.711 18.003C87.864 18.003 87.189 17.351 87.189 16.507C87.189 15.872 87.584 15.304 88.179 15.082C89.339 14.647 90.592 14.406 92.306 14.406ZM92.258 21.793C90.69 21.793 89.724 22.421 89.724 23.579V23.626C89.724 24.616 90.545 25.196 91.727 25.196C93.441 25.196 94.599 24.256 94.599 22.928V22.275C93.972 21.986 93.152 21.793 92.258 21.793ZM106.428 27.756C107.418 27.756 108.095 27.103 108.504 26.163L112.463 17.013C112.535 16.844 112.657 16.458 112.657 16.144C112.657 15.9135 112.612 15.6852 112.523 15.4725C112.434 15.2598 112.304 15.0669 112.139 14.9052C111.975 14.7434 111.78 14.6159 111.566 14.5302C111.352 14.4445 111.124 14.4023 110.893 14.406C109.928 14.406 109.421 15.034 109.181 15.661L106.356 23.217L103.581 15.709C103.314 14.961 102.783 14.406 101.793 14.406C100.804 14.406 100.007 15.251 100.007 16.12C100.007 16.458 100.104 16.772 100.201 17.014L104.16 26.163C104.57 27.128 105.246 27.756 106.235 27.756H106.428ZM120.405 14.309C124.726 14.309 126.633 17.859 126.633 20.537C126.633 21.6 125.885 22.3 124.919 22.3H117.654C118.016 23.965 119.174 24.835 120.816 24.835C121.758 24.8427 122.675 24.5366 123.423 23.965C123.678 23.7659 123.994 23.6632 124.317 23.675C125.137 23.675 125.74 24.305 125.74 25.124C125.74 25.607 125.524 25.97 125.257 26.21C124.123 27.177 122.65 27.78 120.767 27.78C116.881 27.78 114.009 25.052 114.009 21.093V21.046C114.009 17.351 116.639 14.309 120.405 14.309ZM120.405 17.254C118.885 17.254 117.895 18.34 117.605 20.007H123.133C122.916 18.365 121.95 17.254 120.405 17.254ZM131.438 27.635C132.452 27.635 133.271 26.815 133.271 25.8V11.556C133.271 11.0696 133.078 10.6031 132.734 10.2592C132.39 9.91522 131.923 9.722 131.437 9.722C130.951 9.722 130.484 9.91522 130.14 10.2592C129.796 10.6031 129.603 11.0696 129.603 11.556V25.8C129.603 26.814 130.423 27.633 131.436 27.633L131.438 27.635ZM146.188 27.635C147.201 27.635 148.021 26.815 148.021 25.8V16.747L155.456 26.5C155.963 27.153 156.495 27.586 157.386 27.586H157.509C158.546 27.586 159.367 26.766 159.367 25.728V12.283C159.367 11.7963 159.174 11.3296 158.83 10.9855C158.485 10.6413 158.019 10.448 157.532 10.448C157.045 10.448 156.579 10.6413 156.235 10.9855C155.89 11.3296 155.697 11.7963 155.697 12.283V20.996L148.527 11.581C148.022 10.93 147.49 10.495 146.597 10.495H146.211C145.173 10.495 144.352 11.316 144.352 12.354V25.799C144.352 26.813 145.172 27.635 146.186 27.635H146.188ZM169.432 14.309C173.439 14.309 176.408 17.279 176.408 20.996V21.044C176.408 24.763 173.415 27.779 169.384 27.779C165.377 27.779 162.408 24.809 162.408 21.093V21.046C162.408 17.327 165.401 14.309 169.432 14.309ZM169.384 17.472C167.284 17.472 166.029 19.089 166.029 20.996V21.044C166.029 22.951 167.404 24.617 169.432 24.617C171.532 24.617 172.787 23 172.787 21.093V21.044C172.787 19.139 171.412 17.472 169.384 17.472ZM184.182 27.756C185.172 27.756 185.846 27.103 186.258 26.163L190.216 17.013C190.288 16.844 190.411 16.458 190.411 16.144C190.411 15.9135 190.366 15.6852 190.277 15.4725C190.188 15.2598 190.058 15.0669 189.893 14.9052C189.729 14.7434 189.534 14.6159 189.32 14.5302C189.106 14.4445 188.878 14.4023 188.647 14.406C187.681 14.406 187.174 15.034 186.934 15.661L184.109 23.217L181.332 15.709C181.068 14.961 180.536 14.406 179.546 14.406C178.557 14.406 177.76 15.251 177.76 16.12C177.76 16.458 177.857 16.772 177.954 17.014L181.913 26.163C182.323 27.128 182.999 27.756 183.988 27.756H184.182ZM197.942 14.406C199.945 14.406 201.393 14.937 202.31 15.854C203.277 16.821 203.71 18.244 203.71 19.984V25.872C203.71 26.862 202.914 27.635 201.924 27.635C200.863 27.635 200.163 26.886 200.163 26.115V26.089C199.269 27.079 198.037 27.731 196.253 27.731C193.813 27.731 191.809 26.331 191.809 23.772V23.724C191.809 20.9 193.958 19.596 197.024 19.596C198.101 19.5868 199.171 19.7668 200.186 20.128V19.91C200.186 18.389 199.244 17.544 197.41 17.544C196.552 17.5343 195.697 17.6561 194.875 17.905C194.706 17.969 194.526 18.0022 194.345 18.003C193.5 18.003 192.823 17.351 192.823 16.507C192.823 15.871 193.218 15.303 193.813 15.082C194.972 14.647 196.228 14.406 197.942 14.406ZM197.893 21.793C196.323 21.793 195.358 22.421 195.358 23.579V23.626C195.358 24.616 196.179 25.196 197.362 25.196C199.076 25.196 200.235 24.256 200.235 22.928V22.275C199.607 21.986 198.786 21.793 197.893 21.793Z" fill="white"/>
</g>
<defs>
<radialGradient id="paint0_radial_27_26" cx="0" cy="0" r="1" gradientUnits="userSpaceOnUse" gradientTransform="translate(-267.833 106.035) rotate(32.7354) scale(3473.42 3568.34)">
<stop stop-color="#00FFC4"/>
<stop offset="1" stop-color="#00E1FF"/>
</radialGradient>
<clipPath id="clip0_27_26">
<rect width="204" height="37" fill="white"/>
</clipPath>
</defs>
</svg>

<svg viewBox="0 0 204 37" xmlns="http://www.w3.org/2000/svg">
                        <defs>
                            <radialGradient cx="-4.619%" cy="6.646%" fx="-4.619%" fy="6.646%" r="101.342%" gradientTransform="matrix(.8299 .53351 -.5579 .79363 .03 .038)" id="a">
                                <stop stop-color="#00FFC4" offset="0%"></stop>
                                <stop stop-color="#00E1FF" offset="100%"></stop>
                            </radialGradient>
                        </defs>
                        <g fill-rule="nonzero" fill="none">
                            <path d="M30.343 9.99a14.757 14.757 0 0 1 .046 20.972 18.383 18.383 0 0 1-13.019 5.365A18.382 18.382 0 0 1 3.272 29.79c7.209 5.955 17.945 5.581 24.713-1.118a11.477 11.477 0 0 0 0-16.345c-4.56-4.514-11.953-4.514-16.513 0a4.918 4.918 0 0 0 0 7.006 5.04 5.04 0 0 0 7.077 0 1.68 1.68 0 0 1 2.359 0 1.639 1.639 0 0 1 0 2.333 8.4 8.4 0 0 1-11.794 0 8.198 8.198 0 0 1 0-11.674c5.861-5.805 15.366-5.805 21.229 0ZM17.37 0a18.38 18.38 0 0 1 14.097 6.538C24.257.583 13.52.958 6.756 7.653v.002a11.477 11.477 0 0 0 0 16.346c4.558 4.515 11.95 4.515 16.51 0a4.918 4.918 0 0 0 0-7.005 5.04 5.04 0 0 0-7.077 0 1.68 1.68 0 0 1-2.358 0 1.639 1.639 0 0 1 0-2.334 8.4 8.4 0 0 1 11.794 0 8.198 8.198 0 0 1 0 11.674c-5.862 5.805-15.367 5.805-21.23 0a14.756 14.756 0 0 1-.02-20.994A18.383 18.383 0 0 1 17.37 0Z" fill="url(#a)"></path>
                            <path d="M59.211 27.49a1.68 1.68 0 0 0 1.69-1.69 1.68 1.68 0 0 0-1.69-1.69h-6.88V12.306c0-1.039-.82-1.86-1.86-1.86-1.037 0-1.858.821-1.858 1.86v13.325c0 1.039.82 1.858 1.859 1.858h8.74Zm9.318-13.084c2.004 0 3.453.531 4.37 1.448.965.967 1.4 2.39 1.4 4.13v5.888c0 .99-.798 1.763-1.787 1.763-1.062 0-1.763-.749-1.763-1.52v-.026c-.893.99-2.123 1.642-3.91 1.642-2.438 0-4.441-1.4-4.441-3.959v-.048c0-2.824 2.148-4.128 5.214-4.128a9.195 9.195 0 0 1 3.163.532v-.218c0-1.521-.944-2.366-2.777-2.366a8.416 8.416 0 0 0-2.535.361 1.525 1.525 0 0 1-.53.098c-.846 0-1.521-.652-1.521-1.496 0-.635.394-1.203.989-1.425 1.16-.435 2.414-.676 4.128-.676Zm-.05 7.387c-1.567 0-2.533.628-2.533 1.786v.047c0 .99.821 1.57 2.005 1.57h-.001l.195-.004c1.541-.066 2.59-.915 2.672-2.113l.005-.151v-.653c-.628-.289-1.448-.482-2.342-.482Zm10.817 5.842c1.014 0 1.833-.82 1.833-1.835v-3.428c0-2.607 1.04-4.03 2.898-4.465.748-.17 1.375-.75 1.375-1.714 0-1.04-.652-1.787-1.785-1.787-1.088 0-1.956 1.159-2.486 2.415v-.58a1.835 1.835 0 1 0-3.67 0v9.56c0 1.013.82 1.833 1.833 1.833l.002.001Zm13.01-13.229c2.005 0 3.453.531 4.37 1.448.965.967 1.4 2.39 1.4 4.13v5.888c0 .99-.797 1.763-1.786 1.763-1.063 0-1.763-.749-1.763-1.52v-.026c-.893.99-2.123 1.643-3.911 1.643-2.438-.001-4.44-1.401-4.44-3.96v-.048c0-2.824 2.148-4.128 5.214-4.128a9.195 9.195 0 0 1 3.162.532v-.218c0-1.521-.943-2.366-2.776-2.366a8.416 8.416 0 0 0-2.535.361 1.525 1.525 0 0 1-.53.098c-.847 0-1.522-.652-1.522-1.496 0-.635.395-1.203.99-1.425 1.16-.435 2.413-.676 4.127-.676Zm-.048 7.387c-1.568 0-2.534.628-2.534 1.786v.047c0 .99.821 1.57 2.003 1.57 1.714 0 2.872-.94 2.872-2.268v-.653c-.627-.289-1.447-.482-2.341-.482Zm14.17 5.963c.99 0 1.667-.653 2.076-1.593l3.959-9.15c.072-.169.194-.555.194-.869a1.736 1.736 0 0 0-1.764-1.738c-.965 0-1.472.628-1.712 1.255l-2.825 7.556-2.775-7.508c-.267-.748-.798-1.303-1.788-1.303-.989 0-1.786.845-1.786 1.714 0 .338.097.652.194.894l3.959 9.149c.41.965 1.086 1.593 2.075 1.593h.194-.001Zm13.977-13.447c4.321 0 6.228 3.55 6.228 6.228 0 1.063-.748 1.763-1.714 1.763h-7.265c.362 1.665 1.52 2.535 3.162 2.535a4.237 4.237 0 0 0 2.607-.87 1.37 1.37 0 0 1 .894-.29c.82 0 1.423.63 1.423 1.449 0 .483-.216.846-.483 1.086-1.134.967-2.607 1.57-4.49 1.57-3.886 0-6.758-2.728-6.758-6.687v-.047c0-3.695 2.63-6.737 6.396-6.737Zm0 2.945c-1.52 0-2.51 1.086-2.8 2.753h5.528c-.217-1.642-1.183-2.753-2.728-2.753Zm11.033 10.381c1.014 0 1.833-.82 1.833-1.835V11.556a1.834 1.834 0 0 0-3.668 0V25.8c0 1.014.82 1.833 1.833 1.833l.002.003Zm14.75 0c1.013 0 1.833-.82 1.833-1.835v-9.053l7.435 9.753c.507.653 1.039 1.086 1.93 1.086h.123c1.037 0 1.858-.82 1.858-1.858V12.283a1.835 1.835 0 0 0-3.67 0v8.713l-7.17-9.415c-.505-.651-1.037-1.086-1.93-1.086h-.386c-1.038 0-1.859.821-1.859 1.859v13.445c0 1.014.82 1.836 1.834 1.836h.001Zm23.244-13.326c4.007 0 6.976 2.97 6.976 6.687v.048c0 3.719-2.993 6.735-7.024 6.735-4.007 0-6.976-2.97-6.976-6.686v-.047c0-3.719 2.993-6.737 7.024-6.737Zm-.048 3.163c-2.1 0-3.355 1.617-3.355 3.524v.048c0 1.907 1.375 3.573 3.403 3.573 2.1 0 3.355-1.617 3.355-3.524v-.049c0-1.905-1.375-3.572-3.403-3.572Zm14.798 10.284c.99 0 1.664-.653 2.076-1.593l3.958-9.15c.072-.169.195-.555.195-.869a1.736 1.736 0 0 0-1.764-1.738c-.966 0-1.473.628-1.713 1.255l-2.825 7.556-2.777-7.508c-.264-.748-.796-1.303-1.786-1.303-.989 0-1.786.845-1.786 1.714 0 .338.097.652.194.894l3.959 9.149c.41.965 1.086 1.593 2.075 1.593h.194Zm13.76-13.35c2.003 0 3.451.531 4.368 1.448.967.967 1.4 2.39 1.4 4.13v5.888c0 .99-.796 1.763-1.786 1.763-1.061 0-1.761-.749-1.761-1.52v-.026c-.894.99-2.126 1.642-3.91 1.642-2.44 0-4.444-1.4-4.444-3.959v-.048c0-2.824 2.149-4.128 5.215-4.128a9.195 9.195 0 0 1 3.162.532v-.218c0-1.521-.942-2.366-2.776-2.366a8.416 8.416 0 0 0-2.535.361 1.52 1.52 0 0 1-.53.098c-.845 0-1.522-.652-1.522-1.496 0-.636.395-1.204.99-1.425 1.159-.435 2.415-.676 4.129-.676Zm-.049 7.387c-1.57 0-2.535.628-2.535 1.786v.047c0 .99.821 1.57 2.004 1.57 1.714 0 2.873-.94 2.873-2.268v-.653c-.628-.289-1.449-.482-2.342-.482Z" fill="rgb(255, 255, 255)"></path>
                        </g>
                    </svg>
